;FLAVOR:Marlin
;TIME:3548
;Filament used: 8.22488m
;Layer height: 0.3
;MINX:66.015
;MINY:66.034
;MINZ:0.3
;MAXX:153.985
;MAXY:153.966
;MAXZ:50.1
;Generated with Cura_SteamEngine main
M140 S60
M105
M190 S60
M104 S205
M105
M109 S205
M82 ;absolute extrusion mode
M201 X500.00 Y500.00 Z100.00 E5000.00 ;Setup machine max acceleration
M203 X500.00 Y500.00 Z10.00 E50.00 ;Setup machine max feedrate
M204 P500.00 R1000.00 T500.00 ;Setup Print/Retract/Travel acceleration
M205 X8.00 Y8.00 Z0.40 E5.00 ;Setup Jerk
M220 S100 ;Reset Feedrate
M221 S100 ;Reset Flowrate

G28 ;Home
G29 ;ABL

G92 E0 ;Reset Extruder
G1 Z2.0 F3000 ;Move Z Axis up
G1 X10.1 Y20 Z0.28 F5000.0 ;Move to start position
G1 X10.1 Y200.0 Z0.28 F1500.0 E15 ;Draw the first line
G1 X10.4 Y200.0 Z0.28 F5000.0 ;Move to side a little
G1 X10.4 Y20 Z0.28 F1500.0 E30 ;Draw the second line
G92 E0 ;Reset Extruder
G1 Z2.0 F3000 ;Move Z Axis up
G92 E0
G92 E0
;LAYER_COUNT:167
;LAYER:0
M107
G0 F6000 X70.528 Y70.883 Z0.3
G0 X66.015 Y82.121
;TYPE:SKIRT
G1 F1200 X66.055 Y81.116 E0.05018
G1 X66.121 Y80.345 E0.08879
G1 X66.187 Y79.74 E0.11915
G1 X66.335 Y78.814 E0.16593
G1 X66.585 Y77.827 E0.21673
G1 X66.816 Y77.065 E0.25645
G1 X67.013 Y76.467 E0.28787
G1 X67.354 Y75.594 E0.33462
G1 X67.786 Y74.722 E0.38317
G1 X68.166 Y74.032 E0.42247
G1 X68.501 Y73.458 E0.45563
G1 X69.017 Y72.674 E0.50246
G1 X69.616 Y71.916 E0.55066
G1 X70.127 Y71.325 E0.58963
G1 X70.528 Y70.883 E0.61941
G1 X71.192 Y70.221 E0.66619
G1 X71.975 Y69.569 E0.71702
G1 X72.621 Y69.08 E0.75744
G1 X73.144 Y68.705 E0.78955
G1 X73.934 Y68.199 E0.83635
G1 X74.798 Y67.747 E0.885
G1 X75.503 Y67.417 E0.92384
G1 X76.046 Y67.177 E0.95346
G1 X76.922 Y66.842 E1.00025
G1 X77.907 Y66.563 E1.05132
G1 X78.652 Y66.389 E1.08949
G1 X79.253 Y66.263 E1.12013
G1 X80.179 Y66.118 E1.16689
G1 X81.193 Y66.05 E1.21759
G1 X81.975 Y66.034 E1.25661
G1 X82.628 Y66.037 E1.28919
G1 X83.564 Y66.092 E1.33597
G1 X84.53 Y66.233 E1.38467
G1 X85.697 Y66.464 E1.44402
G1 X86.958 Y66.751 E1.50854
G1 X89.535 Y67.3 E1.64
G1 X91.98 Y67.75 E1.76403
G1 X94.481 Y68.136 E1.89028
G1 X96.987 Y68.452 E2.01629
G1 X99.48 Y68.695 E2.14126
G1 X101.992 Y68.867 E2.26688
G1 X104.514 Y68.969 E2.3928
G1 X106.906 Y69 E2.51215
G1 X113.134 Y69 E2.82287
G1 X115.742 Y68.963 E2.95299
G1 X118.264 Y68.856 E3.07893
G1 X120.758 Y68.679 E3.20367
G1 X123.258 Y68.431 E3.32901
G1 X125.751 Y68.112 E3.4544
G1 X128.244 Y67.721 E3.58029
G1 X130.736 Y67.257 E3.70676
G1 X133.543 Y66.649 E3.85005
G1 X134.649 Y66.39 E3.90672
G1 X135.297 Y66.255 E3.93974
G1 X136.224 Y66.114 E3.98652
G1 X137.197 Y66.05 E4.03517
G1 X137.974 Y66.034 E4.07394
G1 X138.628 Y66.037 E4.10657
G1 X139.564 Y66.092 E4.15335
G1 X140.527 Y66.233 E4.2019
G1 X141.325 Y66.386 E4.24244
G1 X141.942 Y66.52 E4.27394
G1 X142.847 Y66.767 E4.32074
G1 X143.781 Y67.113 E4.37044
G1 X144.457 Y67.399 E4.40706
G1 X145.015 Y67.649 E4.43756
G1 X145.851 Y68.075 E4.48437
G1 X146.749 Y68.641 E4.53733
G1 X147.397 Y69.094 E4.57678
G1 X147.879 Y69.446 E4.60655
G1 X148.605 Y70.04 E4.65335
G1 X149.298 Y70.715 E4.70162
G1 X149.854 Y71.306 E4.7421
G1 X150.32 Y71.83 E4.77708
G1 X150.903 Y72.565 E4.82389
G1 X151.414 Y73.334 E4.86995
G1 X151.814 Y73.995 E4.9085
G1 X152.13 Y74.546 E4.94019
G1 X152.552 Y75.383 E4.98695
G1 X152.922 Y76.312 E5.03684
G1 X153.177 Y77.047 E5.07565
G1 X153.368 Y77.64 E5.10673
G1 X153.608 Y78.546 E5.15349
G1 X153.781 Y79.552 E5.20442
G1 X153.875 Y80.308 E5.24243
G1 X153.938 Y80.933 E5.27377
G1 X153.985 Y81.869 E5.32052
G1 X153.945 Y82.884 E5.3712
G1 X153.879 Y83.655 E5.40981
G1 X153.805 Y84.331 E5.44373
G1 X153.587 Y85.564 E5.5062
G1 X153.394 Y86.382 E5.54813
G1 X152.84 Y88.886 E5.67608
G1 X152.358 Y91.405 E5.80403
G1 X151.96 Y93.852 E5.92772
G1 X151.631 Y96.318 E6.05184
G1 X151.362 Y98.873 E6.18001
G1 X151.172 Y101.365 E6.3047
G1 X151.052 Y103.867 E6.42967
G1 X151 Y106.953 E6.58365
G1 X151 Y113.044 E6.88753
G1 X151.037 Y115.652 E7.01766
G1 X151.144 Y118.174 E7.1436
G1 X151.321 Y120.668 E7.26833
G1 X151.569 Y123.166 E7.39357
G1 X151.887 Y125.655 E7.51876
G1 X152.281 Y128.164 E7.64547
G1 X152.739 Y130.627 E7.77045
G1 X153.275 Y133.121 E7.89772
G1 X153.554 Y134.285 E7.95744
G1 X153.772 Y135.486 E8.01833
G1 X153.874 Y136.303 E8.05941
G1 X153.938 Y136.929 E8.09081
G1 X153.985 Y137.866 E8.13761
G1 X153.946 Y138.875 E8.18799
G1 X153.882 Y139.63 E8.22579
G1 X153.812 Y140.269 E8.25786
G1 X153.663 Y141.194 E8.3046
G1 X153.416 Y142.167 E8.35469
G1 X153.186 Y142.927 E8.3943
G1 X152.987 Y143.532 E8.42608
G1 X152.646 Y144.405 E8.47284
G1 X152.216 Y145.275 E8.52125
G1 X151.849 Y145.942 E8.55923
G1 X151.512 Y146.521 E8.59266
G1 X150.998 Y147.305 E8.63943
G1 X150.384 Y148.084 E8.68891
G1 X149.879 Y148.668 E8.72743
G1 X149.482 Y149.107 E8.75696
G1 X148.818 Y149.769 E8.80374
G1 X148.025 Y150.431 E8.85528
G1 X147.379 Y150.92 E8.8957
G1 X146.878 Y151.28 E8.92648
G1 X146.089 Y151.788 E8.97329
G1 X145.203 Y152.253 E9.02321
G1 X144.5 Y152.582 E9.06194
G1 X143.96 Y152.821 E9.0914
G1 X143.084 Y153.156 E9.13819
G1 X142.091 Y153.437 E9.18967
G1 X141.345 Y153.611 E9.22789
G1 X140.747 Y153.737 E9.25838
G1 X139.821 Y153.882 E9.30514
G1 X138.807 Y153.95 E9.35584
G1 X138.025 Y153.966 E9.39487
G1 X137.372 Y153.963 E9.42745
G1 X136.436 Y153.908 E9.47422
G1 X135.47 Y153.767 E9.52293
G1 X134.303 Y153.536 E9.58228
G1 X133.042 Y153.249 E9.6468
G1 X130.465 Y152.7 E9.77825
G1 X128.02 Y152.25 E9.90228
G1 X125.519 Y151.864 E10.02854
G1 X123.013 Y151.548 E10.15455
G1 X120.52 Y151.305 E10.27952
G1 X118.008 Y151.133 E10.40513
G1 X115.486 Y151.031 E10.53106
G1 X113.094 Y151 E10.65041
G1 X106.866 Y151 E10.96112
G1 X104.258 Y151.037 E11.09125
G1 X101.736 Y151.144 E11.21719
G1 X99.242 Y151.321 E11.34193
G1 X96.742 Y151.569 E11.46726
G1 X94.249 Y151.888 E11.59265
G1 X91.756 Y152.279 E11.71855
G1 X89.264 Y152.743 E11.84501
G1 X86.457 Y153.351 E11.9883
G1 X85.351 Y153.61 E12.04497
G1 X84.703 Y153.745 E12.078
G1 X83.776 Y153.886 E12.12478
G1 X82.803 Y153.95 E12.17343
G1 X82.026 Y153.966 E12.2122
G1 X81.372 Y153.963 E12.24483
G1 X80.436 Y153.908 E12.2916
G1 X79.473 Y153.767 E12.34016
G1 X78.675 Y153.614 E12.3807
G1 X78.058 Y153.48 E12.4122
G1 X77.153 Y153.233 E12.459
G1 X76.219 Y152.887 E12.50869
G1 X75.543 Y152.601 E12.54531
G1 X74.985 Y152.351 E12.57582
G1 X74.149 Y151.925 E12.62263
G1 X73.251 Y151.359 E12.67559
G1 X72.603 Y150.906 E12.71503
G1 X72.121 Y150.554 E12.74481
G1 X71.395 Y149.96 E12.79161
G1 X70.702 Y149.285 E12.83987
G1 X70.146 Y148.694 E12.88035
G1 X69.68 Y148.17 E12.91534
G1 X69.097 Y147.435 E12.96214
G1 X68.586 Y146.666 E13.00821
G1 X68.186 Y146.005 E13.04675
G1 X67.87 Y145.454 E13.07844
G1 X67.448 Y144.617 E13.12521
G1 X67.078 Y143.688 E13.1751
G1 X66.823 Y142.953 E13.21391
G1 X66.632 Y142.36 E13.24499
G1 X66.392 Y141.454 E13.29175
G1 X66.218 Y140.441 E13.34303
G1 X66.123 Y139.673 E13.38164
G1 X66.062 Y139.072 E13.41177
G1 X66.015 Y138.135 E13.45858
G1 X66.055 Y137.116 E13.50946
G1 X66.121 Y136.345 E13.54806
G1 X66.194 Y135.678 E13.58154
G1 X66.415 Y134.424 E13.64507
G1 X66.608 Y133.607 E13.68695
G1 X67.16 Y131.114 E13.81434
G1 X67.642 Y128.595 E13.94229
G1 X68.04 Y126.148 E14.06598
G1 X68.369 Y123.682 E14.19009
G1 X68.638 Y121.127 E14.31827
G1 X68.828 Y118.635 E14.44296
G1 X68.948 Y116.133 E14.56792
G1 X69 Y113.047 E14.72191
G1 X69 Y106.956 E15.02579
G1 X68.963 Y104.348 E15.15592
G1 X68.856 Y101.826 E15.28185
G1 X68.679 Y99.332 E15.40659
G1 X68.432 Y96.837 E15.53168
G1 X68.112 Y94.336 E15.65747
G1 X67.721 Y91.847 E15.78317
G1 X67.26 Y89.367 E15.90902
G1 X66.725 Y86.879 E16.03598
G1 X66.446 Y85.715 E16.0957
G1 X66.227 Y84.511 E16.15675
G1 X66.123 Y83.676 E16.19873
G1 X66.061 Y83.057 E16.22977
G1 X66.015 Y82.121 E16.27652
G0 F6000 X66.415 Y82.101
G1 F1200 X66.454 Y81.15 E16.32401
G1 X66.52 Y80.379 E16.36261
G1 X66.584 Y79.786 E16.39237
G1 X66.73 Y78.877 E16.4383
G1 X66.968 Y77.943 E16.48639
G1 X67.199 Y77.181 E16.52611
G1 X67.392 Y76.597 E16.5568
G1 X67.727 Y75.74 E16.6027
G1 X68.136 Y74.914 E16.64869
G1 X68.516 Y74.224 E16.68799
G1 X68.844 Y73.663 E16.72041
G1 X69.351 Y72.895 E16.76632
G1 X69.919 Y72.178 E16.81196
G1 X70.43 Y71.587 E16.85093
G1 X70.822 Y71.154 E16.88007
G1 X71.475 Y70.505 E16.92601
G1 X72.216 Y69.888 E16.97411
G1 X72.862 Y69.399 E17.01453
G1 X73.374 Y69.032 E17.04596
G1 X74.15 Y68.537 E17.09188
G1 X74.967 Y68.11 E17.13787
G1 X75.672 Y67.78 E17.17671
G1 X76.204 Y67.545 E17.20572
G1 X77.065 Y67.216 E17.25171
G1 X77.998 Y66.953 E17.30007
G1 X78.743 Y66.779 E17.33824
G1 X79.332 Y66.655 E17.36827
G1 X80.241 Y66.514 E17.41416
G1 X81.201 Y66.45 E17.46216
G1 X81.983 Y66.434 E17.50118
G1 X82.622 Y66.437 E17.53306
G1 X83.541 Y66.492 E17.579
G1 X84.454 Y66.626 E17.62503
G1 X85.608 Y66.854 E17.68372
G1 X86.85 Y67.137 E17.74727
G1 X89.451 Y67.691 E17.87995
G1 X91.919 Y68.145 E18.00514
G1 X94.437 Y68.534 E18.13226
G1 X96.939 Y68.849 E18.25807
G1 X99.447 Y69.093 E18.38378
G1 X101.985 Y69.268 E18.5107
G1 X104.493 Y69.369 E18.63593
G1 X106.901 Y69.4 E18.75608
G1 X113.14 Y69.4 E19.06734
G1 X115.764 Y69.363 E19.19827
G1 X118.273 Y69.256 E19.32355
G1 X120.793 Y69.078 E19.44959
G1 X123.308 Y68.829 E19.57568
G1 X125.797 Y68.51 E19.70087
G1 X128.349 Y68.109 E19.82975
G1 X130.79 Y67.655 E19.95362
G1 X133.652 Y67.034 E20.09973
G1 X134.74 Y66.78 E20.15547
G1 X135.374 Y66.648 E20.18778
G1 X136.284 Y66.509 E20.23371
G1 X137.205 Y66.45 E20.27975
G1 X137.982 Y66.434 E20.31852
G1 X138.622 Y66.437 E20.35045
G1 X139.541 Y66.492 E20.39638
G1 X140.452 Y66.626 E20.44232
G1 X141.25 Y66.779 E20.48286
G1 X141.853 Y66.91 E20.51365
G1 X142.741 Y67.153 E20.55958
G1 X143.625 Y67.482 E20.60664
G1 X144.301 Y67.768 E20.64326
G1 X144.849 Y68.013 E20.6732
G1 X145.669 Y68.432 E20.71914
G1 X146.52 Y68.968 E20.76932
G1 X147.168 Y69.421 E20.80877
G1 X147.639 Y69.767 E20.83792
G1 X148.351 Y70.35 E20.88383
G1 X149.006 Y70.989 E20.92949
G1 X149.562 Y71.58 E20.96997
G1 X150.018 Y72.092 E21.00417
G1 X150.589 Y72.813 E21.05006
G1 X151.072 Y73.541 E21.09365
G1 X151.472 Y74.202 E21.13219
G1 X151.781 Y74.742 E21.16323
G1 X152.195 Y75.564 E21.20915
G1 X152.544 Y76.443 E21.25633
G1 X152.799 Y77.178 E21.29515
G1 X152.986 Y77.758 E21.32555
G1 X153.221 Y78.649 E21.37152
G1 X153.384 Y79.601 E21.41971
G1 X153.478 Y80.357 E21.45772
G1 X153.54 Y80.969 E21.4884
G1 X153.585 Y81.889 E21.53436
G1 X153.546 Y82.85 E21.58234
G1 X153.48 Y83.621 E21.62095
G1 X153.407 Y84.284 E21.65423
G1 X153.198 Y85.472 E21.71441
G1 X153.01 Y86.267 E21.75516
G1 X152.443 Y88.83 E21.88612
G1 X151.97 Y91.303 E22.01174
G1 X151.563 Y93.806 E22.13825
G1 X151.231 Y96.295 E22.26353
G1 X150.964 Y98.833 E22.39085
G1 X150.775 Y101.316 E22.51508
G1 X150.652 Y103.873 E22.6428
G1 X150.6 Y106.947 E22.79619
G1 X150.6 Y113.05 E23.10067
G1 X150.637 Y115.674 E23.23159
G1 X150.744 Y118.183 E23.35688
G1 X150.922 Y120.699 E23.48272
G1 X151.172 Y123.223 E23.60926
G1 X151.493 Y125.731 E23.7354
G1 X151.88 Y128.193 E23.85974
G1 X152.355 Y130.747 E23.98934
G1 X152.876 Y133.172 E24.11309
G1 X153.165 Y134.378 E24.17496
G1 X153.375 Y135.536 E24.23367
G1 X153.477 Y136.353 E24.27475
G1 X153.54 Y136.966 E24.30549
G1 X153.585 Y137.885 E24.3514
G1 X153.547 Y138.841 E24.39913
G1 X153.483 Y139.596 E24.43693
G1 X153.415 Y140.222 E24.46835
G1 X153.268 Y141.13 E24.51424
G1 X153.034 Y142.051 E24.56165
G1 X152.804 Y142.811 E24.60126
G1 X152.609 Y143.402 E24.63231
G1 X152.273 Y144.259 E24.67824
G1 X151.866 Y145.082 E24.72404
G1 X151.499 Y145.749 E24.76202
G1 X151.168 Y146.316 E24.79478
G1 X150.663 Y147.085 E24.84068
G1 X150.081 Y147.822 E24.88753
G1 X149.576 Y148.406 E24.92605
G1 X149.188 Y148.836 E24.95494
G1 X148.536 Y149.486 E25.00087
G1 X147.784 Y150.112 E25.04969
G1 X147.138 Y150.601 E25.09011
G1 X146.648 Y150.953 E25.12021
G1 X145.873 Y151.451 E25.16617
G1 X145.033 Y151.891 E25.21348
G1 X144.33 Y152.22 E25.2522
G1 X143.801 Y152.454 E25.28106
G1 X142.941 Y152.782 E25.32698
G1 X142 Y153.048 E25.37577
G1 X141.254 Y153.222 E25.41398
G1 X140.668 Y153.345 E25.44386
G1 X139.759 Y153.486 E25.48975
G1 X138.799 Y153.55 E25.53775
G1 X138.017 Y153.566 E25.57677
G1 X137.378 Y153.563 E25.60865
G1 X136.459 Y153.508 E25.65458
G1 X135.546 Y153.374 E25.70062
G1 X134.392 Y153.146 E25.75931
G1 X133.15 Y152.863 E25.82286
G1 X130.549 Y152.309 E25.95554
G1 X128.081 Y151.855 E26.08073
G1 X125.563 Y151.466 E26.20784
G1 X123.061 Y151.151 E26.33365
G1 X120.553 Y150.907 E26.45937
G1 X118.015 Y150.732 E26.58629
G1 X115.507 Y150.631 E26.71152
G1 X113.099 Y150.6 E26.83166
G1 X106.86 Y150.6 E27.14293
G1 X104.236 Y150.637 E27.27385
G1 X101.727 Y150.744 E27.39914
G1 X99.207 Y150.922 E27.52518
G1 X96.692 Y151.171 E27.65127
G1 X94.203 Y151.49 E27.77646
G1 X91.651 Y151.891 E27.90534
G1 X89.21 Y152.345 E28.02921
G1 X86.348 Y152.966 E28.17532
G1 X85.26 Y153.22 E28.23106
G1 X84.626 Y153.352 E28.26337
G1 X83.716 Y153.491 E28.30929
G1 X82.795 Y153.55 E28.35534
G1 X82.018 Y153.566 E28.39411
G1 X81.378 Y153.563 E28.42604
G1 X80.459 Y153.508 E28.47197
G1 X79.548 Y153.374 E28.51791
G1 X78.75 Y153.221 E28.55845
G1 X78.147 Y153.09 E28.58923
G1 X77.259 Y152.847 E28.63516
G1 X76.375 Y152.518 E28.68222
G1 X75.699 Y152.232 E28.71884
G1 X75.151 Y151.987 E28.74879
G1 X74.331 Y151.568 E28.79473
G1 X73.48 Y151.032 E28.84491
G1 X72.832 Y150.579 E28.88435
G1 X72.361 Y150.233 E28.91351
G1 X71.649 Y149.65 E28.95942
G1 X70.994 Y149.011 E29.00507
G1 X70.438 Y148.42 E29.04556
G1 X69.982 Y147.908 E29.07976
G1 X69.411 Y147.187 E29.12565
G1 X68.928 Y146.459 E29.16923
G1 X68.528 Y145.798 E29.20778
G1 X68.219 Y145.258 E29.23882
G1 X67.805 Y144.436 E29.28474
G1 X67.456 Y143.557 E29.33192
G1 X67.201 Y142.822 E29.37073
G1 X67.014 Y142.242 E29.40114
G1 X66.779 Y141.351 E29.44711
G1 X66.615 Y140.392 E29.49565
G1 X66.52 Y139.624 E29.53426
G1 X66.46 Y139.035 E29.56379
G1 X66.415 Y138.115 E29.60975
G1 X66.454 Y137.15 E29.65793
G1 X66.52 Y136.379 E29.69654
G1 X66.591 Y135.724 E29.72941
G1 X66.804 Y134.517 E29.79055
G1 X66.989 Y133.735 E29.83065
G1 X67.557 Y131.17 E29.96171
G1 X68.03 Y128.697 E30.08733
G1 X68.437 Y126.194 E30.21384
G1 X68.769 Y123.705 E30.33912
G1 X69.036 Y121.167 E30.46644
G1 X69.225 Y118.684 E30.59068
G1 X69.348 Y116.127 E30.71839
G1 X69.4 Y113.053 E30.87178
G1 X69.4 Y106.95 E31.17626
G1 X69.363 Y104.326 E31.30718
G1 X69.256 Y101.817 E31.43247
G1 X69.078 Y99.297 E31.55851
G1 X68.829 Y96.783 E31.68455
G1 X68.51 Y94.294 E31.80974
G1 X68.109 Y91.742 E31.93862
G1 X67.653 Y89.288 E32.06315
G1 X67.124 Y86.828 E32.18868
G1 X66.835 Y85.622 E32.25055
G1 X66.624 Y84.461 E32.30942
G1 X66.52 Y83.626 E32.3514
G1 X66.459 Y83.021 E32.38174
G1 X66.415 Y82.101 E32.42769
G0 F6000 X66.815 Y82.082
G1 F1200 X66.852 Y81.184 E32.47253
G1 X66.918 Y80.413 E32.51114
G1 X66.981 Y79.833 E32.54024
G1 X67.126 Y78.941 E32.58533
G1 X67.351 Y78.059 E32.63074
G1 X67.582 Y77.297 E32.67047
G1 X67.77 Y76.726 E32.70046
G1 X68.1 Y75.886 E32.74548
G1 X68.486 Y75.107 E32.78886
G1 X68.866 Y74.417 E32.82816
G1 X69.187 Y73.869 E32.85984
G1 X69.685 Y73.115 E32.90492
G1 X70.221 Y72.44 E32.94793
G1 X70.732 Y71.849 E32.9869
G1 X71.116 Y71.425 E33.01544
G1 X71.757 Y70.789 E33.06049
G1 X72.458 Y70.207 E33.10595
G1 X73.104 Y69.718 E33.14637
G1 X73.603 Y69.36 E33.17701
G1 X74.365 Y68.874 E33.2221
G1 X75.137 Y68.472 E33.26553
G1 X75.842 Y68.142 E33.30436
G1 X76.363 Y67.912 E33.33277
G1 X77.207 Y67.591 E33.37782
G1 X78.089 Y67.342 E33.42355
G1 X78.834 Y67.168 E33.46171
G1 X79.41 Y67.048 E33.49107
G1 X80.303 Y66.909 E33.53616
G1 X81.209 Y66.85 E33.58145
G1 X81.991 Y66.834 E33.62048
G1 X82.615 Y66.837 E33.65161
G1 X83.517 Y66.891 E33.69669
G1 X84.379 Y67.019 E33.74017
G1 X85.519 Y67.244 E33.79814
G1 X86.824 Y67.541 E33.86491
G1 X89.332 Y68.075 E33.99284
G1 X91.89 Y68.546 E34.1226
G1 X94.357 Y68.927 E34.24714
G1 X96.886 Y69.246 E34.37431
G1 X99.414 Y69.492 E34.50103
G1 X101.942 Y69.665 E34.62745
G1 X104.509 Y69.769 E34.75562
G1 X106.895 Y69.8 E34.87467
G1 X113.146 Y69.8 E35.18653
G1 X115.751 Y69.763 E35.31651
G1 X118.317 Y69.654 E35.44464
G1 X120.824 Y69.476 E35.57003
G1 X123.365 Y69.225 E35.69742
G1 X125.873 Y68.904 E35.82357
G1 X128.378 Y68.51 E35.95008
G1 X130.876 Y68.046 E36.07684
G1 X133.715 Y67.43 E36.22177
G1 X134.831 Y67.169 E36.27895
G1 X135.451 Y67.04 E36.31054
